X: 24246
T: Lord Of The Dance, The
R: jig
M: 6/8
K: Amajor
|:E2GE A2B2|EEGE c2B2|DDED FDGD|ADGD FDEF|
E2GE A2B2|EEGE c2B2|DDED FDGD|AGFD E4:|
|:B2eB fBgB|B2eB fBgB|A2dA eAfA|(3gfe fe edBA|
B2eB fBgB|B2eB fBgB|A2dA eAfA|(3gfe dB e4:|
|:d4 B3A|BcBA G4|B2Bc d2cB|A2D2 D4|
G2GF GDBD|GDGB d2cB|A2AA AcBA|1 G2GG G4:|2 G2GG G3D||
G2GG B2BB|d2d2 B4|A2AA A3B|cBAG F3D|
G2GG B2BB|d2d2 B4|A2AA AcBA|G2GF G4||
|:e4 c3B|cdcB A4|c2cd e2dc|B2E2 E4|
A2AA A3B|cBcd e2dc|B2BB BdcB|1 A2A2 A4:|2 A2e2 a4||

